; generated by PrusaSlicer 2.6.0+win64 on 2023-08-05 at 10:56:18 UTC


;
;
; 

; external perimeters extrusion width = 0.60mm
; perimeters extrusion width = 0.50mm
; infill extrusion width = 0.50mm
; solid infill extrusion width = 0.50mm
; top infill extrusion width = 0.45mm
; first layer extrusion width = 0.42mm

M73 P0 R152
M73 Q0 S153
M201 X1000 Y1000 Z200 E5000 ; sets maximum accelerations, mm/sec^2
M203 X200 Y200 Z12 E120 ; sets maximum feedrates, mm / sec
M204 S1250 T1250 ; sets acceleration (S) and retract acceleration (R), mm/sec^2
M205 X8.00 Y8.00 Z0.40 E4.50 ; sets the jerk limits, mm/sec
M205 S0 T0 ; sets the minimum extruding and travel feed rate, mm/sec
;TYPE:Custom
M862.3 P "MK3S" ; printer model check
M862.1 P0.4 ; nozzle diameter check
M115 U3.12.2 ; tell printer latest fw version
G90 ; use absolute coordinates
M83 ; extruder relative mode
M104 S215 ; set extruder temp
M140 S60 ; set bed temp
M190 S60 ; wait for bed temp
M109 S215 ; wait for extruder temp
G28 W ; home all without mesh bed level
G80 ; mesh bed leveling

G1 Z0.2 F720
G1 Y-3 F1000 ; go outside print area
G92 E0
G1 X60 E9 F1000 ; intro line
G1 X100 E12.5 F1000 ; intro line

G92 E0
M221 S95

; Don't change E values below. Excessive value can damage the printer.

M907 E538 ; set extruder motor current
G21 ; set units to millimeters
G90 ; use absolute coordinates
M83 ; use relative distances for extrusion
M900 K0.05 ; Filament gcode LA 1.5
M900 K30 ; Filament gcode LA 1.0
M107
;LAYER_CHANGE
;Z:0.2
;HEIGHT:0.2
;BEFORE_LAYER_CHANGE
G92 E0.0
;0.2


G1 E-.8 F2100
G1 Z.4 F720
;AFTER_LAYER_CHANGE
;0.2
G1 X72.623 Y15 F10800
G1 Z.2 F720
G1 E.8 F2100
M204 S800
;TYPE:Skirt/Brim
;WIDTH:0.42
G1 F1200
G1 X73.015 Y13.693 E.04278
G1 X74.06 Y12.817 E.04275
G1 X75 Y12.623 E.03009
G1 X175 Y12.623 E3.13543
G1 X176.307 Y13.015 E.04278
G1 X177.183 Y14.06 E.04275
G1 X177.377 Y15 E.03009
G1 X177.377 Y195 E5.64377
G1 X176.985 Y196.307 E.04278
G1 X175.94 Y197.183 E.04275
G1 X175 Y197.377 E.03009
G1 X75 Y197.377 E3.13543
G1 X73.693 Y196.985 E.04278
M73 P0 R151
M73 Q0 S152
G1 X72.817 Y195.94 E.04275
G1 X72.623 Y195 E.03009
G1 X72.623 Y15.06 E5.64189
M204 S1000
; printing object CellPhoneAdapter2in-PartBodyEyePiecePlatform.stl id:0 copy 0
;WIPE_START
G1 F8640
G1 X73.015 Y13.693 E-.32837
G1 X74.06 Y12.817 E-.31486
G1 X74.725 Y12.68 E-.15677
;WIPE_END
G1 Z.6 F720
G1 X174.213 Y124.994 F10800
G1 Z.2 F720
G1 E.8 F2100
M204 S800
;TYPE:Perimeter
;WIDTH:0.419999
G1 F1200
G1 X174.213 Y164.429 E1.23645
;WIDTH:0.45449
G1 X174.196 Y164.978 E.0188
G1 X174.213 Y165.526 E.01876
;WIDTH:0.420798
G1 X174.223 Y166.072 E.01716
;WIDTH:0.400812
G1 X174.226 Y166.618 E.01625
;WIDTH:0.401727
G1 X174.222 Y167.164 E.01629
;WIDTH:0.422679
G1 X174.212 Y167.712 E.01731
;WIDTH:0.457381
G1 X174.194 Y168.26 E.0189
G1 X174.213 Y168.771 E.01762
;WIDTH:0.419999
G1 X174.213 Y194.213 E.79771
G1 X75.787 Y194.213 E3.08607
G1 X75.787 Y168.794 E.79699
;WIDTH:0.454491
G1 X75.804 Y168.222 E.01958
G1 X75.787 Y167.674 E.01876
;WIDTH:0.420798
G1 X75.777 Y167.128 E.01716
;WIDTH:0.400812
G1 X75.774 Y166.582 E.01625
;WIDTH:0.401728
G1 X75.778 Y166.035 E.01632
;WIDTH:0.422679
G1 X75.788 Y165.488 E.01728
;WIDTH:0.457442
G1 X75.806 Y164.939 E.01893
G1 X75.787 Y164.429 E.01759
;WIDTH:0.419999
G1 X75.787 Y117.971 E1.45666
;WIDTH:0.45449
G1 X75.804 Y117.422 E.0188
G1 X75.787 Y116.874 E.01876
;WIDTH:0.420798
G1 X75.777 Y116.328 E.01716
;WIDTH:0.400812
G1 X75.774 Y115.782 E.01625
;WIDTH:0.401728
G1 X75.778 Y115.235 E.01632
;WIDTH:0.422679
G1 X75.788 Y114.688 E.01728
;WIDTH:0.457443
G1 X75.806 Y114.139 E.01893
;WIDTH:0.493418
G1 X75.824 Y113.588 E.02065
G1 X75.805 Y113.333 E.00958
;WIDTH:0.456709
G1 X75.787 Y113.078 E.0088
;WIDTH:0.419999
G1 X75.787 Y15.787 E3.05049
G1 X121.013 Y15.787 E1.41803
G1 X121.013 Y28.74 E.40613
G1 X121.026 Y29.158 E.01311
G1 X121.102 Y29.831 E.02124
G1 X121.275 Y30.415 E.0191
G1 X121.536 Y30.957 E.01886
G1 X121.735 Y31.272 E.01168
G1 X122.067 Y31.686 E.01664
G1 X122.548 Y32.143 E.0208
G1 X123.044 Y32.473 E.01868
G1 X123.583 Y32.726 E.01867
G1 X124.154 Y32.895 E.01867
G1 X124.744 Y32.978 E.01868
G1 X125.354 Y32.969 E.01913
G1 X126.12 Y32.825 E.02444
G1 X126.698 Y32.604 E.0194
G1 X127.361 Y32.211 E.02417
G1 X127.863 Y31.768 E.02099
G1 X128.21 Y31.361 E.01677
G1 X128.614 Y30.678 E.02488
G1 X128.847 Y30.038 E.02136
G1 X128.947 Y29.552 E.01556
G1 X128.987 Y29.003 E.01726
G1 X128.987 Y15.787 E.41438
G1 X174.213 Y15.787 E1.41803
G1 X174.213 Y18.865 E.09651
G1 X174.213 Y113.629 E2.97125
;WIDTH:0.45449
G1 X174.196 Y114.178 E.0188
G1 X174.213 Y114.726 E.01876
;WIDTH:0.420798
G1 X174.223 Y115.272 E.01716
;WIDTH:0.400812
G1 X174.226 Y115.818 E.01625
;WIDTH:0.401727
G1 X174.222 Y116.364 E.01629
;WIDTH:0.422679
G1 X174.212 Y116.912 E.01731
;WIDTH:0.457381
G1 X174.194 Y117.46 E.0189
G1 X174.213 Y117.971 E.01762
;WIDTH:0.419999
G1 X174.213 Y124.934 E.21832
M204 S1000
;WIPE_START
G1 F8640
G1 X174.213 Y128.399 E-.8
;WIPE_END
G1 Z.6 F720
G1 X121.39 Y15.41 F10800
G1 Z.2 F720
G1 E.8 F2100
M204 S800
;TYPE:External perimeter
G1 F1200
G1 X121.39 Y28.74 E.41795
G1 X121.401 Y29.121 E.01195
G1 X121.465 Y29.729 E.01917
G1 X121.603 Y30.221 E.01602
G1 X121.927 Y30.894 E.02342
G1 X122.331 Y31.416 E.0207
G1 X122.761 Y31.831 E.01874
G1 X123.207 Y32.133 E.01689
G1 X123.694 Y32.365 E.01691
G1 X124.211 Y32.522 E.01694
G1 X124.744 Y32.601 E.01689
G1 X125.288 Y32.598 E.01706
G1 X125.991 Y32.471 E.0224
G1 X126.509 Y32.278 E.01733
G1 X127.119 Y31.922 E.02214
G1 X127.53 Y31.574 E.01689
G1 X127.888 Y31.164 E.01707
G1 X128.254 Y30.564 E.02204
G1 X128.429 Y30.085 E.01599
G1 X128.571 Y29.524 E.01814
G1 X128.61 Y29.003 E.01638
G1 X128.61 Y15.41 E.4262
G1 X174.59 Y15.41 E1.44167
G1 X174.59 Y194.59 E5.61805
G1 X75.41 Y194.59 E3.10971
G1 X75.41 Y15.41 E5.61805
M73 P0 R150
M73 Q0 S151
G1 X121.33 Y15.41 E1.43979
M204 S1000
M73 P1 R150
M73 Q1 S151
G1 X121.357 Y15.809 F10800
;WIPE_START
G1 F8640
G1 X121.346 Y18.875 E-.8
;WIPE_END
G1 Z.6 F720
G1 X170.737 Y23.688 F10800
G1 Z.2 F720
G1 E.8 F2100
M204 S800
;TYPE:Perimeter
G1 F1200
G1 X171.01 Y24.431 E.02482
G1 X171.217 Y25.23 E.02588
G1 X171.342 Y26.047 E.02591
G1 X171.386 Y26.872 E.0259
G1 X171.348 Y27.697 E.02589
G1 X171.228 Y28.514 E.02589
G1 X171.027 Y29.316 E.02592
G1 X170.747 Y30.093 E.0259
G1 X170.391 Y30.838 E.02589
G1 X169.962 Y31.545 E.02593
G1 X169.42 Y32.258 E.02808
G1 X168.614 Y33.085 E.03621
G1 X167.96 Y33.612 E.02633
G1 X167.268 Y34.062 E.02588
G1 X166.534 Y34.442 E.02592
G1 X165.766 Y34.746 E.0259
G1 X164.971 Y34.972 E.02591
G1 X164.158 Y35.119 E.0259
G1 X163.335 Y35.183 E.02588
G1 X162.509 Y35.165 E.0259
G1 X161.689 Y35.065 E.0259
G1 X161.072 Y34.928 E.01982
G1 X160.453 Y34.743 E.02026
G1 X159.815 Y34.499 E.02142
G1 X159.342 Y34.285 E.01628
G1 X158.686 Y33.909 E.02371
G1 X158.101 Y33.501 E.02236
G1 X157.542 Y33.035 E.02282
G1 X157.021 Y32.518 E.02301
G1 X156.547 Y31.957 E.02303
G1 X156.238 Y31.545 E.01615
G1 X155.836 Y30.888 E.02415
G1 X155.475 Y30.145 E.0259
G1 X155.19 Y29.369 E.02592
G1 X154.983 Y28.57 E.02588
G1 X154.851 Y27.683 E.02812
G1 X154.823 Y26.529 E.03619
G1 X154.902 Y25.693 E.02633
G1 X155.063 Y24.883 E.02589
G1 X155.304 Y24.092 E.02593
G1 X155.622 Y23.33 E.02589
G1 X156.015 Y22.603 E.02591
G1 X156.478 Y21.919 E.0259
G1 X157.006 Y21.284 E.02589
G1 X157.596 Y20.706 E.0259
G1 X158.24 Y20.188 E.02591
G1 X158.932 Y19.738 E.02588
G1 X159.666 Y19.358 E.02592
G1 X160.434 Y19.054 E.0259
G1 X161.229 Y18.828 E.02591
G1 X162.042 Y18.681 E.0259
G1 X162.865 Y18.617 E.02588
G1 X163.691 Y18.635 E.0259
G1 X164.511 Y18.735 E.0259
G1 X165.317 Y18.916 E.0259
G1 X166.101 Y19.176 E.0259
G1 X166.855 Y19.513 E.02589
G1 X167.572 Y19.924 E.02591
G1 X168.244 Y20.404 E.02589
G1 X168.866 Y20.948 E.02591
G1 X169.43 Y21.552 E.02591
G1 X169.931 Y22.209 E.02591
G1 X170.364 Y22.912 E.02589
G1 X170.714 Y23.633 E.02513
M204 S1000
G1 X170.382 Y23.813 F10800
M204 S800
;TYPE:External perimeter
G1 F1200
G1 X170.656 Y24.56 E.02495
G1 X170.851 Y25.323 E.02469
G1 X170.97 Y26.103 E.02474
G1 X171.01 Y26.891 E.02474
G1 X170.971 Y27.678 E.02471
G1 X170.855 Y28.458 E.02473
G1 X170.661 Y29.223 E.02475
G1 X170.392 Y29.964 E.02472
G1 X170.051 Y30.675 E.02472
G1 X169.641 Y31.348 E.02471
G1 X169.15 Y31.995 E.02547
G1 X168.344 Y32.821 E.03619
G1 X167.725 Y33.317 E.02487
G1 X167.063 Y33.745 E.02472
G1 X166.362 Y34.106 E.02472
G1 X165.628 Y34.395 E.02473
G1 X164.869 Y34.609 E.02473
G1 X164.093 Y34.747 E.02471
G1 X163.307 Y34.807 E.02472
G1 X162.518 Y34.788 E.02475
G1 X161.736 Y34.691 E.02471
G1 X161.156 Y34.56 E.01864
G1 X160.573 Y34.386 E.01908
G1 X159.971 Y34.155 E.02022
G1 X159.499 Y33.943 E.01622
G1 X158.874 Y33.583 E.02261
G1 X158.322 Y33.195 E.02116
G1 X157.792 Y32.753 E.02164
G1 X157.297 Y32.261 E.02188
G1 X156.847 Y31.73 E.02182
G1 X156.449 Y31.168 E.02159
G1 X156.158 Y30.691 E.01752
G1 X155.815 Y29.981 E.02472
G1 X155.544 Y29.24 E.02474
G1 X155.349 Y28.477 E.02469
G1 X155.228 Y27.674 E.02546
G1 X155.2 Y26.52 E.03619
G1 X155.277 Y25.73 E.02489
G1 X155.432 Y24.957 E.02472
G1 X155.664 Y24.204 E.0247
G1 X155.969 Y23.477 E.02472
G1 X156.346 Y22.784 E.02474
G1 X156.789 Y22.131 E.02474
G1 X157.295 Y21.527 E.02471
G1 X157.859 Y20.976 E.02472
G1 X158.475 Y20.483 E.02474
G1 X159.137 Y20.055 E.02472
G1 X159.838 Y19.694 E.02472
G1 X160.572 Y19.405 E.02473
G1 X161.331 Y19.191 E.02473
G1 X162.107 Y19.053 E.02471
G1 X162.893 Y18.993 E.02472
G1 X163.682 Y19.012 E.02475
G1 X164.464 Y19.109 E.02471
G1 X165.233 Y19.283 E.02472
G1 X165.981 Y19.533 E.02473
G1 X166.7 Y19.857 E.02473
G1 X167.384 Y20.25 E.02473
G1 X168.024 Y20.71 E.02471
G1 X168.616 Y21.231 E.02473
G1 X169.153 Y21.808 E.02471
G1 X169.63 Y22.436 E.02473
G1 X170.042 Y23.109 E.02474
G1 X170.356 Y23.759 E.02263
M204 S1000
G1 X170.779 Y23.862 F10800
;WIPE_START
G1 F8640
G1 X170.656 Y24.56 E-.1975
G1 X170.851 Y25.323 E-.18184
G1 X170.97 Y26.103 E-.18219
G1 X171.01 Y26.891 E-.18219
G1 X170.998 Y27.134 E-.05628
;WIPE_END
G1 Z.6 F720
G1 X163.725 Y82.139 F10800
G1 Z.2 F720
G1 E.8 F2100
M204 S800
;TYPE:Perimeter
G1 F1200
G1 X164.511 Y82.235 E.02483
G1 X165.317 Y82.416 E.0259
G1 X166.101 Y82.676 E.0259
G1 X166.855 Y83.013 E.02589
G1 X167.572 Y83.424 E.02591
G1 X168.244 Y83.904 E.02589
G1 X168.866 Y84.448 E.02591
G1 X169.43 Y85.052 E.02591
G1 X169.931 Y85.709 E.02591
G1 X170.364 Y86.412 E.02589
G1 X170.725 Y87.155 E.0259
G1 X171.01 Y87.931 E.02592
G1 X171.217 Y88.73 E.02588
G1 X171.342 Y89.547 E.02591
G1 X171.386 Y90.372 E.0259
G1 X171.348 Y91.197 E.02589
G1 X171.228 Y92.014 E.02589
G1 X171.027 Y92.816 E.02592
G1 X170.747 Y93.593 E.0259
G1 X170.391 Y94.338 E.02589
G1 X169.962 Y95.045 E.02593
G1 X169.466 Y95.705 E.02589
G1 X168.906 Y96.312 E.02589
G1 X168.289 Y96.861 E.0259
G1 X167.279 Y97.555 E.03842
G1 X166.757 Y97.827 E.01846
G1 X166.241 Y98.059 E.01774
G1 X165.766 Y98.246 E.01601
G1 X165.229 Y98.4 E.01752
G1 X164.374 Y98.581 E.0274
G1 X163.302 Y98.685 E.03377
G1 X162.738 Y98.671 E.01769
G1 X161.854 Y98.586 E.02784
G1 X161.296 Y98.479 E.01781
G1 X160.46 Y98.245 E.02722
G1 X159.933 Y98.052 E.0176
G1 X159.345 Y97.787 E.02022
G1 X158.628 Y97.376 E.02591
G1 X158.05 Y96.964 E.02226
G1 X157.474 Y96.475 E.02369
G1 X157.069 Y96.07 E.01796
G1 X156.643 Y95.584 E.02026
G1 X156.269 Y95.091 E.0194
G1 X155.836 Y94.388 E.02589
G1 X155.475 Y93.645 E.0259
G1 X155.19 Y92.869 E.02592
G1 X155.026 Y92.237 E.02047
G1 X154.9 Y91.535 E.02236
G1 X154.846 Y90.985 E.01733
G1 X154.823 Y90.029 E.02998
G1 X154.902 Y89.193 E.02633
G1 X155.063 Y88.383 E.02589
G1 X155.304 Y87.592 E.02593
G1 X155.622 Y86.83 E.02589
G1 X156.015 Y86.103 E.02591
G1 X156.478 Y85.419 E.0259
G1 X157.006 Y84.784 E.02589
G1 X157.596 Y84.206 E.0259
G1 X158.24 Y83.688 E.02591
G1 X158.69 Y83.395 E.01684
G1 X159.467 Y82.96 E.02792
G1 X160.262 Y82.622 E.02709
G1 X160.578 Y82.511 E.0105
G1 X161.229 Y82.328 E.0212
G1 X161.817 Y82.221 E.01874
G1 X162.53 Y82.142 E.02249
G1 X163.665 Y82.135 E.03559
M204 S1000
G1 X163.673 Y82.512 F10800
M204 S800
;TYPE:External perimeter
G1 F1200
G1 X164.464 Y82.609 E.02499
G1 X165.233 Y82.783 E.02472
G1 X165.981 Y83.033 E.02473
G1 X166.7 Y83.357 E.02473
G1 X167.384 Y83.75 E.02473
G1 X168.024 Y84.21 E.02471
G1 X168.616 Y84.731 E.02473
G1 X169.153 Y85.308 E.02471
G1 X169.63 Y85.936 E.02473
G1 X170.042 Y86.609 E.02474
G1 X170.385 Y87.319 E.02472
G1 X170.656 Y88.06 E.02474
G1 X170.851 Y88.823 E.02469
G1 X170.97 Y89.603 E.02474
G1 X171.01 Y90.391 E.02474
G1 X170.971 Y91.178 E.02471
G1 X170.855 Y91.958 E.02473
G1 X170.661 Y92.723 E.02475
G1 X170.392 Y93.464 E.02472
G1 X170.051 Y94.175 E.02472
G1 X169.641 Y94.848 E.02471
G1 X169.165 Y95.477 E.02473
G1 X168.63 Y96.056 E.02472
G1 X168.039 Y96.578 E.02472
G1 X167.067 Y97.243 E.03693
G1 X166.585 Y97.492 E.01701
G1 X166.103 Y97.708 E.01656
G1 X165.628 Y97.895 E.01601
G1 X165.127 Y98.037 E.01633
G1 X164.309 Y98.209 E.02621
G1 X163.784 Y98.271 E.01658
G1 X162.934 Y98.299 E.02667
G1 X162.406 Y98.275 E.01657
G1 X161.734 Y98.191 E.02123
G1 X160.967 Y98.017 E.02466
G1 X160.375 Y97.819 E.01957
G1 X159.623 Y97.499 E.02562
G1 X159.154 Y97.244 E.01674
G1 X158.52 Y96.837 E.02362
G1 X158.105 Y96.529 E.0162
G1 X157.584 Y96.069 E.02179
G1 X157.047 Y95.492 E.02471
G1 X156.57 Y94.864 E.02473
G1 X156.158 Y94.191 E.02474
G1 X155.815 Y93.481 E.02472
G1 X155.544 Y92.74 E.02474
G1 X155.392 Y92.144 E.01929
G1 X155.273 Y91.479 E.02118
G1 X155.223 Y90.975 E.01588
G1 X155.2 Y90.02 E.02995
G1 X155.277 Y89.23 E.02489
G1 X155.432 Y88.457 E.02472
G1 X155.664 Y87.704 E.0247
G1 X155.969 Y86.977 E.02472
G1 X156.346 Y86.284 E.02474
G1 X156.789 Y85.631 E.02474
G1 X157.295 Y85.027 E.02471
G1 X157.859 Y84.476 E.02472
G1 X158.475 Y83.983 E.02474
G1 X159.137 Y83.555 E.02472
G1 X159.639 Y83.296 E.01771
G1 X160.399 Y82.973 E.02589
G1 X160.68 Y82.874 E.00934
G1 X161.331 Y82.691 E.0212
G1 X161.883 Y82.592 E.01758
G1 X162.559 Y82.518 E.02132
G1 X163.613 Y82.512 E.03305
M204 S1000
G1 X163.896 Y82.179 F10800
;WIPE_START
G1 F8640
G1 X164.464 Y82.609 E-.19777
G1 X165.233 Y82.783 E-.18205
G1 X165.981 Y83.033 E-.18211
G1 X166.7 Y83.357 E-.1821
G1 X166.91 Y83.478 E-.05597
;WIPE_END
G1 Z.6 F720
G1 X168.49 Y125.143 F10800
G1 Z.2 F720
G1 E.8 F2100
M204 S800
;TYPE:Perimeter
G1 F1200
G1 X168.034 Y125.393 E.01631
G1 X167.549 Y125.627 E.01688
G1 X167.054 Y125.836 E.01685
G1 X166.549 Y126.021 E.01686
G1 X166.035 Y126.18 E.01687
G1 X165.514 Y126.313 E.01686
G1 X164.987 Y126.421 E.01687
G1 X164.455 Y126.502 E.01687
G1 X163.936 Y126.554 E.01635
G1 X163.413 Y126.582 E.01642
G1 X162.887 Y126.584 E.01649
G1 X162.36 Y126.56 E.01654
G1 X161.833 Y126.511 E.01659
G1 X161.308 Y126.436 E.01663
G1 X160.787 Y126.334 E.01665
G1 X160.269 Y126.207 E.01672
G1 X159.757 Y126.054 E.01675
G1 X159.253 Y125.876 E.01676
G1 X158.757 Y125.672 E.01682
G1 X158.271 Y125.444 E.01683
G1 X157.796 Y125.191 E.01687
G1 X157.333 Y124.914 E.01692
G1 X156.883 Y124.613 E.01697
G1 X156.449 Y124.29 E.01696
G1 X156.03 Y123.945 E.01702
G1 X155.628 Y123.578 E.01707
G1 X155.245 Y123.191 E.01707
G1 X154.88 Y122.784 E.01714
G1 X154.536 Y122.357 E.01719
G1 X154.213 Y121.912 E.01724
G1 X153.911 Y121.45 E.01731
G1 X153.633 Y120.971 E.01736
G1 X153.387 Y120.493 E.01686
G1 X153.166 Y120.003 E.01685
G1 X152.968 Y119.503 E.01686
G1 X152.796 Y118.993 E.01688
G1 X152.65 Y118.475 E.01687
G1 X152.53 Y117.951 E.01685
G1 X152.433 Y117.408 E.01729
G1 X152.368 Y116.888 E.01643
G1 X152.327 Y116.352 E.01685
G1 X152.313 Y115.814 E.01687
G1 X152.326 Y115.276 E.01687
G1 X152.365 Y114.74 E.01685
G1 X152.431 Y114.206 E.01687
G1 X152.524 Y113.676 E.01687
G1 X152.643 Y113.152 E.01685
G1 X152.788 Y112.634 E.01687
G1 X152.959 Y112.124 E.01687
G1 X153.155 Y111.623 E.01687
G1 X153.375 Y111.132 E.01687
G1 X153.62 Y110.653 E.01687
G1 X153.888 Y110.187 E.01686
G1 X154.179 Y109.735 E.01686
G1 X154.493 Y109.298 E.01687
G1 X154.828 Y108.877 E.01687
G1 X155.533 Y108.114 E.03257
G1 X155.951 Y107.722 E.01797
G1 X156.363 Y107.375 E.01689
G1 X156.792 Y107.05 E.01688
G1 X157.236 Y106.746 E.01687
G1 X157.694 Y106.465 E.01685
G1 X158.166 Y106.207 E.01687
G1 X158.651 Y105.973 E.01688
G1 X159.146 Y105.764 E.01685
G1 X159.651 Y105.579 E.01686
G1 X160.165 Y105.42 E.01687
G1 X160.686 Y105.287 E.01686
